X: 10371
M: C|
L: 1/8
K: D
uA, !segno!|\
|: uA |\
d<d (f>d) (g>e) f>d | (g>e) (f>d) (3efd (3cBA | d<d (f>d) (g>e) f>d | (3Bcd (3efg f<dd>A |
d<d (f>d) (g>e) f>d | (g>e)(f>d) (3efd (3cBA | (3fga (3gfe (3def (3edc | (3BcB (3dcB (3ABA "_Segue Reel."(3GFE !segno! :|


